X: 63
T:Tom Howard's
% Nottingham Music Database
S:Kevin Briggs
M:4/4
L:1/8
R:Hornpipe
K:A
e2|"A"ABcd ecae|"D"fgaf "A"ecae|"D"fgaf "A"ecAc|"B7"BAGF "E7"E2 E2/3F2/3G2/3|
"A"ABcd ecae|"D"fgaf "A"ecae|"D"fagf "E7"edcB|"A"A2c2 A2:|:
B2|"E7"Bcde dBGB|"A"Aceg a2eg|"D"afdf "A"ecAc|"B7"BAGF "E7"E4|
"E7"Bcde dBGB|"A"Aceg a2ba|"E"gbge "B7"faf^d|"E"e2e2 e2:|


